gama.ui.shared/icons_svg/light/experiment/experiment.simulations.menu.svg

<svg height="25" viewBox="-490.774 -3215.705 25 25" width="25" xmlns="http://www.w3.org/2000/svg"><g fill="none"><path d="m-470.11414-3215.205h-16.32c-2.12076 0-3.84 1.719-3.84 3.84v16.32c0 2.1207 1.71924 3.84 3.84 3.84h16.32c2.12078 0 3.84-1.7193 3.84-3.84v-16.32c0-2.121-1.71922-3.84-3.84-3.84z" fill="#fff"/><path d="m-470.11414-3215.205h-16.32c-2.12076 0-3.84 1.719-3.84 3.84v16.32c0 2.1207 1.71924 3.84 3.84 3.84h16.32c2.12078 0 3.84-1.7193 3.84-3.84v-16.32c0-2.121-1.71922-3.84-3.84-3.84z" stroke="#000" stroke-linecap="round" stroke-linejoin="round" stroke-width=".25"/><path d="m-490.27414-3215.205h24v24h-24z"/><path d="m-481.31226-3202.168c-2.97424-.3585-4.59439-3.745-2.92694-6.2555 2.3855-3.5945 7.8262-1.537 7.49505 2.8397-.13035 1.7328-1.37095 2.6936-1.68005 4.2601-.7244 3.6681 3.8658 5.4302 5.91803 2.4233 1.39514-2.0448-.06833-4.9171-2.52429-5.0936-.31644-.0222-.87364.1418-.97144-.2693-.1104-.4637.4058-.492.7265-.491 3.0552.0126 5.04645 3.3139 3.59874 6.0001-2.05748 3.8195-7.92401 2.2488-7.56444-2.2005.1882-2.3266 2.41704-3.5399 1.6159-6.122-.8915-2.8703-4.607-3.337-6.08624-.7349-1.1691 2.0566.21344 4.6566 2.55898 4.8972-.16824-.3449-.51724-.6518-.69809-.9799-.22289-.4037.25655-.8474.64868-.4174.42687.4689.77377 1.0957 1.21431 1.5677.10936.1976.05676.4036-.06519.5824-.56665.3269-1.13125.9776-1.68635 1.2806-.31857.1734-.71913-.1115-.5488-.467.11774-.246.96933-.757.97774-.82z" fill="#5c76a1"/></g></svg>

<?xml version="1.0" encoding="UTF-8" standalone="no"?>
<!DOCTYPE svg PUBLIC "-//W3C//DTD SVG 1.1//EN" "http://www.w3.org/Graphics/SVG/1.1/DTD/svg11.dtd">
<svg xmlns:dc="http://purl.org/dc/elements/1.1/" xmlns:xl="http://www.w3.org/1999/xlink" version="1.1" xmlns="http://www.w3.org/2000/svg" viewBox="-490.77414 -3215.705 25 25" width="25" height="25">
  <defs/>
  <g id="SOURCES" stroke-dasharray="none" stroke="none" stroke-opacity="1" fill="none" fill-opacity="1">
    <title>SOURCES</title>
    <g id="SOURCES_New">
      <title>New</title>
      <g id="Group_10431">
        <g id="Group_7131">
          <g id="Graphic_7133">
            <path d="M -470.11414 -3215.205 L -486.43414 -3215.205 C -488.5549 -3215.205 -490.27414 -3213.486 -490.27414 -3211.365 L -490.27414 -3195.045 C -490.27414 -3192.9243 -488.5549 -3191.205 -486.43414 -3191.205 L -470.11414 -3191.205 C -467.99336 -3191.205 -466.27414 -3192.9243 -466.27414 -3195.045 L -466.27414 -3211.365 C -466.27414 -3213.486 -467.99336 -3215.205 -470.11414 -3215.205 Z" fill="white"/>
            <path d="M -470.11414 -3215.205 L -486.43414 -3215.205 C -488.5549 -3215.205 -490.27414 -3213.486 -490.27414 -3211.365 L -490.27414 -3195.045 C -490.27414 -3192.9243 -488.5549 -3191.205 -486.43414 -3191.205 L -470.11414 -3191.205 C -467.99336 -3191.205 -466.27414 -3192.9243 -466.27414 -3195.045 L -466.27414 -3211.365 C -466.27414 -3213.486 -467.99336 -3215.205 -470.11414 -3215.205 Z" stroke="black" stroke-linecap="round" stroke-linejoin="round" stroke-width=".25"/>
          </g>
          <g id="Graphic_7132">
            <rect x="-490.27414" y="-3215.205" width="24" height="24" stroke="gray" stroke-opacity="0" stroke-linecap="round" stroke-linejoin="round" stroke-width=".25"/>
          </g>
        </g>
        <g id="Graphic_10006">
          <path d="M -481.31226 -3202.168 C -484.2865 -3202.5265 -485.90665 -3205.913 -484.2392 -3208.4235 C -481.8537 -3212.018 -476.413 -3209.9605 -476.74415 -3205.5838 C -476.8745 -3203.851 -478.1151 -3202.8902 -478.4242 -3201.3237 C -479.1486 -3197.6556 -474.5584 -3195.8935 -472.50617 -3198.9004 C -471.11103 -3200.9452 -472.5745 -3203.8175 -475.03046 -3203.994 C -475.3469 -3204.0162 -475.9041 -3203.8522 -476.0019 -3204.2633 C -476.1123 -3204.727 -475.5961 -3204.7553 -475.2754 -3204.7543 C -472.2202 -3204.7417 -470.22895 -3201.4404 -471.67666 -3198.7542 C -473.73414 -3194.9347 -479.60067 -3196.5054 -479.2411 -3200.9547 C -479.0529 -3203.2813 -476.82406 -3204.4946 -477.6252 -3207.0767 C -478.5167 -3209.947 -482.2322 -3210.4137 -483.71144 -3207.8116 C -484.88054 -3205.755 -483.498 -3203.155 -481.15246 -3202.9144 C -481.3207 -3203.2593 -481.6697 -3203.5662 -481.85055 -3203.8943 C -482.07344 -3204.298 -481.594 -3204.7417 -481.20187 -3204.3117 C -480.775 -3203.8428 -480.4281 -3203.216 -479.98756 -3202.744 C -479.8782 -3202.5464 -479.9308 -3202.3404 -480.05275 -3202.1616 C -480.6194 -3201.8347 -481.184 -3201.184 -481.7391 -3200.881 C -482.05767 -3200.7076 -482.45823 -3200.9925 -482.2879 -3201.348 C -482.17016 -3201.594 -481.31857 -3202.105 -481.31016 -3202.168 Z" fill="#5c76a1"/>
        </g>
      </g>
    </g>
  </g>
</svg>
